X:1
T:Title
%%score { ( 1 3 4 ) | ( 2 5 ) }
L:1/8
M:4/4
K:Bb
V:1 treble nm="Grand Piano"
V:3 treble 
V:4 treble 
V:2 bass 
V:5 bass 
V:1
 z4 z2[Q:1/4=100] [Fd]>[Ge] | d2 c2 G2 c>d | [Ec]2 [DB]2 [DF]2 [DB]>[DB] | c2 F2 c>c B>c | %4
 [Fd]6 [Fd]>[Ge] | d2 c2 G2 c>d | [Ec]2 [DB]2 [DF]2 [FB]>[FA] | [EG]2 [Ge]2 d>c G>A | %8
[M:3/4] [DB]6 |[M:1/4] [DF]2 |[M:4/4] z2 z A [Ec]>[DB] [Fd]>[DB] | [DF]6 z2 | %12
 z2 z A [Ec]>[DB] z z/ B/ | [EG]6 z2 | [CFA]3 [DFB] [Fc]2 [FA]2 | [FB]2 [Fc]2 [Fd]2 [Fd]2 | %16
 [Fc]3 [Fd] [=Ec]>[EB] [EA]>[EG] |[M:9/8] F2 G- G A2- A F2 | %18
[M:4/4] [DB]3 [Ec] [Fd]>[Ec] [DB]>[FA] | [FA]2 [EG]4 [EG]2 | [Gc]3 [Gd] [Ge]>[Gd] [Gc]>[GB] | %21
 B2 A4 F2 | [FB]4 c4 | d2 [Fe]2 [Ff]2 [Ge]2 | d3 B c2 c2 |[M:3/4] [DB]6 |] %26
V:2
 z4 z2 [B,,B,]>[B,,B,] | [F,B,F]2 [F,A,E]2 [F,CE]2 [F,A,E]>[F,A,F] | %2
 [B,,B,]2 [B,,F,]2 [B,,B,]2 [B,,F,]>[B,,F,] | [F,A,E]2 [F,A,E]2 [F,A,E]>[F,A,E] [F,B,D]>[F,A,F] | %4
 [B,,B,]6 [B,,B,]>[B,,B,] | [F,B,F]2 [F,A,E]2 [F,CE]2 [F,A,E]>[F,A,F] | %6
 [B,,B,]2 [B,,F,]2 [B,,B,]2 [D,B,]>[D,B,] | [E,B,]2 [E,B,]2 [F,B,F]>[F,A,E] [F,B,E]>[F,CE] | %8
[M:3/4] [B,,B,]6 |[M:1/4] [B,,B,]2 |[M:4/4] [B,,F,]2 z C [B,,F,]2 [B,,F,]2 | %11
 [B,,B,]2 B,,2 B,,2 B,,2 | [B,,F,]2 z C [B,,F,]2 B,->[B,F] | E,2 E,2 E,2 C,2 | %14
 F,3 F, [F,A,]2 [E,C]2 | [D,B,]2 [F,A,]2 [B,,B,]2 [B,,B,]2 | %16
 [C,A,]3 [C,B,] [C,G,]>[C,G,] [C,C]>[C,B,] | %17
[M:9/8] F,2- [F,B,=E]- [F,-B,E] [F,C_E]2- [F,C-E-]/[CE]/ [F,E]2 | %18
[M:4/4] [B,,F,]3 [B,,F,] [B,,F,]>[B,,F,] [B,,F,]>[B,,B,] | [E,B,]2 [E,B,]4 [E,B,]2 | %20
 [E,G,]3 [D,=B,] [C,C]>[D,B,] [E,C]>[=E,_D] | [F,DF]2 [F,CF]4 [E,A,]2 | z4 F4 | %23
 [B,F]2 [C,A,]2 [D,B,]2 [E,B,]2 | [F,B,F]3 [F,B,D] [F,A,E]2 [F,A,E]2 |[M:3/4] [B,,B,]6 |] %26
V:3
 x8 | x8 | x8 | x8 | x8 | x8 | x8 | x8 |[M:3/4] x6 |[M:1/4] x2 |[M:4/4] [DB]4 z4 | %11
 z2 B,2 B,2 [B,DF]2 | [DB]4 z2 [Fd]2 | B,2 B,2 B,2 [C=EG]2 | x8 | x8 | x8 |[M:9/8] x9 |[M:4/4] x8 | %19
 x8 | x8 | x8 | z2 B,2 z2 A,2 | x8 | x8 |[M:3/4] x6 |] %26
V:4
 x8 | x8 | x8 | x8 | x8 | x8 | x8 | x8 |[M:3/4] x6 |[M:1/4] x2 |[M:4/4] z2 F,2 z4 | x8 | %12
 z2 F,2 z2 z D, | x8 | x8 | x8 | x8 |[M:9/8] x9 |[M:4/4] x8 | x8 | x8 | x8 | x8 | x8 | x8 | %25
[M:3/4] x6 |] %26
V:5
 x8 | x8 | x8 | x8 | x8 | x8 | x8 | x8 |[M:3/4] x6 |[M:1/4] x2 |[M:4/4] z2 B,,2 z4 | x8 | %12
 z2 B,,2 z2 .B,,2 | x8 | x8 | x8 | x8 |[M:9/8] .A,3 z3 z3 |[M:4/4] x8 | x8 | x8 | x8 | %22
 [D,B,]2 D,2 [F,A,]2 F,2 | x8 | x8 |[M:3/4] x6 |] %26

